Icons/SVG/brands/mastadon.svg

<?xml version="1.0" encoding="UTF-8"?><svg id="Mastadon" xmlns="http://www.w3.org/2000/svg" viewBox="0 0 24 24"><path d="m22,7v-3h-1v-1h-1v-1h-1v-1H5v1h-1v1h-1v1h-1v3h-1v9h1v3h1v1h1v1h1v1h2v1h7v-1h2v-2h-7v-1h-1v-2h1v1h9v-1h2v-1h1v-1h1v-2h1v-6h-1Zm-3,7h-3v-7h-2v1h-1v4h-2v-4h-1v-1h-2v7h-3V6h1v-1h1v-1h3v1h1v1h2v-1h1v-1h3v1h1v1h1v8Z"/></svg>

<svg width="24" height="24" viewBox="0 0 24 24" fill="none" xmlns="http://www.w3.org/2000/svg">
<path d="M22 7V4H21V3H20V2H19V1H5V2H4V3H3V4H2V7H1V16H2V19H3V20H4V21H5V22H7V23H14V22H16V20H9V19H8V17H9V18H18V17H20V16H21V15H22V13H23V7H22ZM19 14H16V7H14V8H13V12H11V8H10V7H8V14H5V6H6V5H7V4H10V5H11V6H13V5H14V4H17V5H18V6H19V14Z" fill="black"/>
</svg>
